src/icons/azure-metrics.svg

<?xml version="1.0" encoding="UTF-8"?>
<svg xmlns="http://www.w3.org/2000/svg" xmlns:xlink="http://www.w3.org/1999/xlink" width="29.510504" height="32" viewBox="0 0 29.510504 32" version="1.1">
<defs>
<linearGradient id="linear0" gradientUnits="userSpaceOnUse" x1="6.57" y1="7.06" x2="6.57" y2="3.76" gradientTransform="matrix(1.817149,0,0,1.817149,-1.544577,-0.290744)">
<stop offset="0" style="stop-color:rgb(46.666667%,22.745098%,86.274511%);stop-opacity:1;"/>
<stop offset="1" style="stop-color:rgb(71.764708%,47.843137%,95.686275%);stop-opacity:1;"/>
</linearGradient>
<linearGradient id="linear1" gradientUnits="userSpaceOnUse" x1="11.02" y1="11.15" x2="11.02" y2="7.86" gradientTransform="matrix(1.817149,0,0,1.817149,-1.544577,-0.290744)">
<stop offset="0" style="stop-color:rgb(46.666667%,22.745098%,86.274511%);stop-opacity:1;"/>
<stop offset="1" style="stop-color:rgb(71.764708%,47.843137%,95.686275%);stop-opacity:1;"/>
</linearGradient>
<linearGradient id="linear2" gradientUnits="userSpaceOnUse" x1="15.15" y1="3.79" x2="15.15" y2="0.5" gradientTransform="matrix(1.817149,0,0,1.817149,-1.544577,-0.290744)">
<stop offset="0" style="stop-color:rgb(46.666667%,22.745098%,86.274511%);stop-opacity:1;"/>
<stop offset="1" style="stop-color:rgb(71.764708%,47.843137%,95.686275%);stop-opacity:1;"/>
</linearGradient>
<linearGradient id="linear3" gradientUnits="userSpaceOnUse" x1="2.85" y1="11.86" x2="2.85" y2="8.57" gradientTransform="matrix(1.817149,0,0,1.817149,-1.544577,-0.290744)">
<stop offset="0" style="stop-color:rgb(46.666667%,22.745098%,86.274511%);stop-opacity:1;"/>
<stop offset="1" style="stop-color:rgb(71.764708%,47.843137%,95.686275%);stop-opacity:1;"/>
</linearGradient>
</defs>
<g id="surface1">
<path style=" stroke:none;fill-rule:nonzero;fill:rgb(71.764708%,58.823532%,97.647059%);fill-opacity:1;" d="M 25.222656 2.652344 L 17.972656 15.554688 L 10.304688 7.742188 L 2.398438 17.988281 L 4.253906 19.445312 L 10.519531 11.355469 L 18.480469 19.480469 L 27.277344 3.835938 Z M 25.222656 2.652344 "/>
<path style=" stroke:none;fill-rule:nonzero;fill:url(#linear0);" d="M 13.375 9.539062 C 13.375 11.195312 12.039062 12.539062 10.394531 12.539062 C 8.75 12.539062 7.414062 11.195312 7.414062 9.539062 C 7.414062 7.882812 8.75 6.542969 10.394531 6.542969 C 12.039062 6.542969 13.375 7.882812 13.375 9.539062 Z M 13.375 9.539062 "/>
<path style=" stroke:none;fill-rule:nonzero;fill:url(#linear1);" d="M 21.460938 16.972656 C 21.460938 18.628906 20.125 19.96875 18.480469 19.96875 C 16.835938 19.96875 15.5 18.628906 15.5 16.972656 C 15.5 15.316406 16.835938 13.972656 18.480469 13.972656 C 20.125 13.972656 21.460938 15.316406 21.460938 16.972656 Z M 21.460938 16.972656 "/>
<path style=" stroke:none;fill-rule:nonzero;fill:url(#linear2);" d="M 28.964844 3.617188 C 28.964844 5.273438 27.632812 6.613281 25.984375 6.613281 C 24.339844 6.613281 23.003906 5.273438 23.003906 3.617188 C 23.003906 1.960938 24.339844 0.617188 25.984375 0.617188 C 27.632812 0.617188 28.964844 1.960938 28.964844 3.617188 Z M 28.964844 3.617188 "/>
<path style=" stroke:none;fill-rule:nonzero;fill:url(#linear3);" d="M 6.613281 18.28125 C 6.613281 19.9375 5.28125 21.277344 3.632812 21.277344 C 1.988281 21.277344 0.652344 19.9375 0.652344 18.28125 C 0.652344 16.625 1.988281 15.28125 3.632812 15.28125 C 5.28125 15.28125 6.613281 16.625 6.613281 18.28125 Z M 6.613281 18.28125 "/>
<path style=" stroke:none;fill-rule:nonzero;fill:rgb(0%,47.058824%,83.137256%);fill-opacity:1;" d="M 9.265625 17.734375 L 12.9375 17.734375 C 13.21875 17.734375 13.445312 17.964844 13.445312 18.246094 L 13.445312 31 C 13.445312 31.28125 13.21875 31.507812 12.9375 31.507812 L 9.265625 31.507812 C 8.988281 31.507812 8.757812 31.28125 8.757812 31 L 8.757812 18.246094 C 8.757812 17.964844 8.988281 17.734375 9.265625 17.734375 Z M 9.265625 17.734375 "/>
<path style=" stroke:none;fill-rule:nonzero;fill:rgb(0%,35.686275%,63.137257%);fill-opacity:1;" d="M 16.734375 22.496094 L 20.40625 22.496094 C 20.6875 22.496094 20.914062 22.722656 20.914062 23.003906 L 20.914062 31 C 20.914062 31.28125 20.6875 31.507812 20.40625 31.507812 L 16.734375 31.507812 C 16.453125 31.507812 16.226562 31.28125 16.226562 31 L 16.226562 23.003906 C 16.226562 22.722656 16.453125 22.496094 16.734375 22.496094 Z M 16.734375 22.496094 "/>
<path style=" stroke:none;fill-rule:nonzero;fill:rgb(0%,35.686275%,63.137257%);fill-opacity:1;" d="M 24.203125 13.121094 L 27.875 13.121094 C 28.15625 13.121094 28.382812 13.347656 28.382812 13.628906 L 28.382812 31 C 28.382812 31.28125 28.15625 31.507812 27.875 31.507812 L 24.203125 31.507812 C 23.921875 31.507812 23.695312 31.28125 23.695312 31 L 23.695312 13.628906 C 23.695312 13.347656 23.921875 13.121094 24.203125 13.121094 Z M 24.203125 13.121094 "/>
<path style=" stroke:none;fill-rule:nonzero;fill:rgb(36.862746%,62.7451%,93.725491%);fill-opacity:1;" d="M 1.800781 22.496094 L 5.46875 22.496094 C 5.75 22.496094 5.976562 22.722656 5.976562 23.003906 L 5.976562 31 C 5.976562 31.28125 5.75 31.507812 5.46875 31.507812 L 1.800781 31.507812 C 1.519531 31.507812 1.289062 31.28125 1.289062 31 L 1.289062 23.003906 C 1.289062 22.722656 1.519531 22.496094 1.800781 22.496094 Z M 1.800781 22.496094 "/>
</g>
</svg>

<svg role="img" viewBox="0 0 29.511 32" xmlns="http://www.w3.org/2000/svg" xmlns:xlink="http://www.w3.org/1999/xlink"><defs><linearGradient gradientTransform="translate(-1.545 -.29)scale(1.81715)" gradientUnits="userSpaceOnUse" id="a" x1="6.57" x2="6.57" y1="7.06" y2="3.76"><stop offset="0" style="stop-color:rgb(46.666667%,22.745098%,86.274511%);stop-opacity:1"/><stop offset="1" style="stop-color:rgb(71.764708%,47.843137%,95.686275%);stop-opacity:1"/></linearGradient><linearGradient gradientTransform="translate(-1.545 -.29)scale(1.81715)" gradientUnits="userSpaceOnUse" id="b" x1="11.02" x2="11.02" y1="11.15" y2="7.86"><stop offset="0" style="stop-color:rgb(46.666667%,22.745098%,86.274511%);stop-opacity:1"/><stop offset="1" style="stop-color:rgb(71.764708%,47.843137%,95.686275%);stop-opacity:1"/></linearGradient><linearGradient gradientTransform="translate(-1.545 -.29)scale(1.81715)" gradientUnits="userSpaceOnUse" id="c" x1="15.15" x2="15.15" y1="3.79" y2=".5"><stop offset="0" style="stop-color:rgb(46.666667%,22.745098%,86.274511%);stop-opacity:1"/><stop offset="1" style="stop-color:rgb(71.764708%,47.843137%,95.686275%);stop-opacity:1"/></linearGradient><linearGradient gradientTransform="translate(-1.545 -.29)scale(1.81715)" gradientUnits="userSpaceOnUse" id="d" x1="2.85" x2="2.85" y1="11.86" y2="8.57"><stop offset="0" style="stop-color:rgb(46.666667%,22.745098%,86.274511%);stop-opacity:1"/><stop offset="1" style="stop-color:rgb(71.764708%,47.843137%,95.686275%);stop-opacity:1"/></linearGradient></defs><path d="m25.223 2.652-7.25 12.903-7.668-7.813-7.907 10.246 1.856 1.457 6.266-8.09 7.96 8.125 8.797-15.644Zm0 0" style="stroke:none;fill-rule:nonzero;fill:rgb(71.764708%,58.823532%,97.647059%);fill-opacity:1"/><path d="M13.375 9.54c0 1.655-1.336 3-2.98 3a2.992 2.992 0 0 1-2.98-3 2.988 2.988 0 0 1 2.98-2.997c1.644 0 2.98 1.34 2.98 2.996m0 0" style="stroke:none;fill-rule:nonzero;fill:url(#a)"/><path d="M21.46 16.973a2.988 2.988 0 0 1-2.98 2.996 2.988 2.988 0 0 1-2.98-2.996c0-1.657 1.336-3 2.98-3a2.992 2.992 0 0 1 2.98 3m0 0" style="stroke:none;fill-rule:nonzero;fill:url(#b)"/><path d="M28.965 3.617a2.986 2.986 0 0 1-2.98 2.996 2.988 2.988 0 0 1-2.981-2.996c0-1.656 1.336-3 2.98-3a2.99 2.99 0 0 1 2.98 3m0 0" style="stroke:none;fill-rule:nonzero;fill:url(#c)"/><path d="M6.613 18.281a2.986 2.986 0 0 1-2.98 2.996 2.988 2.988 0 0 1-2.98-2.996c0-1.656 1.335-3 2.98-3a2.99 2.99 0 0 1 2.98 3m0 0" style="stroke:none;fill-rule:nonzero;fill:url(#d)"/><path d="M9.266 17.734h3.672a.51.51 0 0 1 .507.512V31a.507.507 0 0 1-.508.508h-3.67A.51.51 0 0 1 8.758 31V18.246c0-.281.23-.512.508-.512m0 0" style="stroke:none;fill-rule:nonzero;fill:rgb(0%,47.058824%,83.137256%);fill-opacity:1"/><path d="M16.734 22.496h3.672c.282 0 .508.227.508.508V31a.507.507 0 0 1-.508.508h-3.672a.507.507 0 0 1-.507-.508v-7.996c0-.281.226-.508.507-.508m7.469-9.375h3.672c.281 0 .508.227.508.508V31a.507.507 0 0 1-.508.508h-3.672a.507.507 0 0 1-.508-.508V13.629c0-.281.227-.508.508-.508m0 0" style="stroke:none;fill-rule:nonzero;fill:rgb(0%,35.686275%,63.137257%);fill-opacity:1"/><path d="M1.8 22.496h3.67c.281 0 .508.227.508.508V31a.507.507 0 0 1-.508.508H1.8A.51.51 0 0 1 1.289 31v-7.996a.51.51 0 0 1 .512-.508m0 0" style="stroke:none;fill-rule:nonzero;fill:rgb(36.862746%,62.7451%,93.725491%);fill-opacity:1"/></svg>
